X:393
T: HERR JESU LASS DEIN BITTERN TOD UND PEIN
N: E1583
O: Europa, Mitteleuropa, Deutschland, Hessen, Taunus, Wuerges
R: Staende - Lied, Nachtwaechter
M: 2/4
L: 1/16
K: G
D2 | G3FG2A2 | B4A2
A2 | B2Bcd2dc | B6
D2 | G3FG2A2 | B4A2
A2 | B2Bcd2dc | B6
GA | B2d2A2BA | G4z2
GA | B2d2A2BA | G4z2

